apps/wow-docs/public/icon/icon_motif.svg

<svg width="568" height="113" viewBox="0 0 568 113" fill="none" xmlns="http://www.w3.org/2000/svg">
<path d="M567.105 70.4308C567.105 78.0546 564.307 84.1779 558.711 88.8008C553.034 93.3426 546.14 95.6135 538.03 95.6135C530.811 95.6135 524.445 93.5048 518.93 89.2874C513.415 85.07 509.603 79.3117 507.494 72.0123L518.2 67.6327C518.93 70.2281 519.944 72.5801 521.241 74.6888C522.539 76.7975 524.039 78.6223 525.742 80.1633C527.527 81.6231 529.473 82.7991 531.582 83.6913C533.691 84.5023 535.921 84.9078 538.273 84.9078C543.382 84.9078 547.559 83.6102 550.803 81.0148C554.048 78.3384 555.67 74.8104 555.67 70.4308C555.67 66.7812 554.331 63.6587 551.655 61.0634C549.141 58.5491 544.437 56.116 537.543 53.764C530.568 51.2498 526.229 49.5466 524.526 48.6545C515.28 43.9505 510.657 37.0161 510.657 27.8514C510.657 21.4442 513.212 15.9697 518.321 11.4279C523.512 6.88613 529.879 4.61523 537.421 4.61523C544.072 4.61523 549.83 6.31841 554.696 9.72476C559.563 13.05 562.807 17.2268 564.429 22.2553L553.966 26.6349C552.993 23.3907 551.047 20.7143 548.127 18.6056C545.288 16.4158 541.801 15.3209 537.665 15.3209C533.285 15.3209 529.595 16.5375 526.594 18.9706C523.593 21.2415 522.093 24.2018 522.093 27.8514C522.093 30.8523 523.269 33.4476 525.621 35.6374C528.216 37.8272 533.853 40.4225 542.531 43.4233C551.371 46.4242 557.657 50.1144 561.387 54.494C565.199 58.7925 567.105 64.1047 567.105 70.4308Z" fill="#C2C2C2"/>
<path d="M499.653 93.6673H439.799V81.9884L486.15 17.2677H441.745V6.56204H499.167V18.241L452.816 82.9617H499.653V93.6673Z" fill="#C2C2C2"/>
<path d="M431.456 50.1144C431.456 63.0098 427.158 73.7966 418.561 82.4747C409.883 91.2339 399.258 95.6135 386.687 95.6135C374.035 95.6135 363.41 91.2339 354.813 82.4747C346.216 73.7966 341.918 63.0098 341.918 50.1144C341.918 37.2189 346.216 26.4321 354.813 17.754C363.41 8.99483 374.035 4.61523 386.687 4.61523C399.339 4.61523 409.964 9.03538 418.561 17.8757C427.158 26.5538 431.456 37.3 431.456 50.1144ZM353.354 50.1144C353.354 60.1712 356.517 68.4843 362.843 75.0537C369.25 81.6231 377.198 84.9078 386.687 84.9078C396.176 84.9078 404.084 81.6231 410.41 75.0537C416.817 68.5654 420.021 60.2523 420.021 50.1144C420.021 39.9764 416.817 31.6633 410.41 25.175C404.084 18.6056 396.176 15.3209 386.687 15.3209C377.198 15.3209 369.25 18.6056 362.843 25.175C356.517 31.7444 353.354 40.0575 353.354 50.1144Z" fill="#C2C2C2"/>
<path d="M287.036 17.2677V47.9249H305.041C309.583 47.9249 313.435 46.465 316.598 43.5453C319.761 40.5445 321.343 36.8542 321.343 32.4746C321.343 28.4195 319.842 24.8915 316.842 21.8906C313.922 18.8087 310.232 17.2677 305.771 17.2677H287.036ZM287.036 93.6673H275.844V6.56204H305.528C313.07 6.56204 319.477 9.07625 324.749 14.1047C330.102 19.052 332.778 25.1753 332.778 32.4746C332.778 38.4763 330.791 43.8292 326.817 48.5332C322.924 53.1561 317.977 56.1164 311.975 57.414L311.732 57.779L336.185 93.1807V93.6673H322.924L299.445 58.3873H287.036V93.6673Z" fill="#C2C2C2"/>
<path d="M250.166 6.56204H264.643V7.04867L232.283 44.3969L266.833 93.1807V93.6673H253.086L224.74 53.0344L211.358 68.4847V93.6673H200.166V6.56204H211.358V51.4529H211.845L250.166 6.56204Z" fill="#C2C2C2"/>
<path d="M177.834 93.7887L169.075 99.5065L163.114 90.6256C156.301 93.9509 149.326 95.6135 142.189 95.6135C129.537 95.6135 118.912 91.2339 110.315 82.4747C101.718 73.7966 97.4199 63.0098 97.4199 50.1144C97.4199 37.2189 101.718 26.4321 110.315 17.754C118.912 8.99483 129.537 4.61523 142.189 4.61523C154.841 4.61523 165.466 9.03538 174.063 17.8757C182.66 26.5538 186.958 37.3 186.958 50.1144C186.958 56.9271 185.62 63.2937 182.944 69.2143C180.348 75.1348 176.618 80.2849 171.751 84.6645L177.834 93.7887ZM142.189 84.9078C147.38 84.9078 152.287 83.7724 156.909 81.5015L146.69 66.1729L155.45 60.2118L165.547 75.4187C172.197 69.0115 175.523 60.5767 175.523 50.1144C175.523 39.9764 172.319 31.6633 165.912 25.175C159.586 18.6056 151.678 15.3209 142.189 15.3209C132.7 15.3209 124.752 18.6056 118.345 25.175C112.019 31.7444 108.856 40.0575 108.856 50.1144C108.856 60.1712 112.019 68.4843 118.345 75.0537C124.752 81.6231 132.7 84.9078 142.189 84.9078Z" fill="#C2C2C2"/>
<path d="M88.0785 53.6424C88.0785 65.8079 84.4694 75.4998 77.2512 82.718C69.1408 91.315 58.4757 95.6135 45.2558 95.6135C32.6037 95.6135 21.898 91.2339 13.1388 82.4747C4.3796 73.7155 0 62.9287 0 50.1144C0 37.3 4.3796 26.5132 13.1388 17.754C21.898 8.99483 32.6037 4.61523 45.2558 4.61523C51.663 4.61523 57.7052 5.75068 63.3825 8.02158C69.0597 10.2925 73.7232 13.4961 77.3728 17.6324L69.3436 25.6616C66.6672 22.4175 63.1797 19.9033 58.8812 18.119C54.6638 16.2536 50.122 15.3209 45.2558 15.3209C35.7667 15.3209 27.7374 18.6056 21.168 25.175C14.6798 31.8255 11.4356 40.1386 11.4356 50.1144C11.4356 60.0901 14.6798 68.4032 21.168 75.0537C27.7374 81.6231 35.7667 84.9078 45.2558 84.9078C53.9339 84.9078 61.1521 82.4747 66.9105 77.6085C72.6688 72.7423 75.9941 66.0512 76.8862 57.5353H45.2558V47.073H87.4703C87.8758 49.3439 88.0785 51.5337 88.0785 53.6424Z" fill="#C2C2C2"/>
<path d="M223.105 32.3379L273.105 102.338" stroke="#368FF7"/>
<path d="M282.105 32.3379L329.105 103.338" stroke="#368FF7"/>
<path d="M131.105 41.3379L178.105 112.338" stroke="#368FF7"/>
<path d="M269.936 1L210.533 69.9064" stroke="#368FF7"/>
<circle cx="171.105" cy="93.3379" r="12" stroke="#368FF7"/>
<ellipse cx="71.6055" cy="20.3379" rx="11.5" ry="12" stroke="#368FF7"/>
<ellipse cx="440.105" cy="88.8379" rx="12" ry="11.5" stroke="#368FF7"/>
<ellipse cx="513.105" cy="69.8379" rx="12" ry="11.5" stroke="#368FF7"/>
</svg>

<svg xmlns="http://www.w3.org/2000/svg" width="568" height="113" fill="none" viewBox="0 0 568 113"><path fill="#C2C2C2" d="M567.105 70.43q0 11.437-8.394 18.37-8.516 6.814-20.681 6.814-10.828 0-19.1-6.327-8.273-6.325-11.436-17.275l10.706-4.38q1.095 3.894 3.041 7.057 1.947 3.163 4.501 5.474a23.9 23.9 0 0 0 5.84 3.528q3.163 1.217 6.691 1.217 7.664 0 12.53-3.893 4.867-4.016 4.867-10.584 0-5.475-4.015-9.368-3.771-3.771-14.112-7.299-10.462-3.77-13.017-5.11-13.869-7.056-13.869-20.803 0-9.61 7.664-16.423 7.787-6.813 19.1-6.813 9.976 0 17.275 5.11 7.3 4.988 9.733 12.53l-10.463 4.38q-1.46-4.866-5.839-8.03-4.258-3.285-10.462-3.284-6.57 0-11.071 3.65-4.501 3.405-4.501 8.88 0 4.502 3.528 7.786 3.893 3.285 16.91 7.786 13.26 4.501 18.856 11.071 5.718 6.447 5.718 15.937M499.653 93.667h-59.854V81.988l46.351-64.72h-44.405V6.562h57.422v11.679l-46.351 64.72h46.837zM431.456 50.114q0 19.344-12.895 32.36-13.017 13.14-31.874 13.14-18.978 0-31.874-13.14-12.895-13.016-12.895-32.36 0-19.343 12.895-32.36 12.896-13.14 31.874-13.139 18.978 0 31.874 13.26 12.895 13.018 12.895 32.24m-78.102 0q0 15.085 9.489 24.94 9.61 9.855 23.844 9.854 14.234 0 23.723-9.854 9.61-9.733 9.611-24.94 0-15.206-9.611-24.939-9.49-9.854-23.723-9.854-14.234 0-23.844 9.854-9.489 9.854-9.489 24.94M287.036 17.268v30.657h18.005q6.813 0 11.557-4.38 4.745-4.5 4.745-11.07 0-6.084-4.501-10.584-4.38-4.623-11.071-4.623zm0 76.4h-11.192V6.561h29.684q11.313 0 19.221 7.543 8.03 7.42 8.029 18.37 0 9.002-5.961 16.058-5.84 6.934-14.842 8.881l-.243.365 24.453 35.402v.486h-13.261l-23.479-35.28h-12.409zM250.166 6.562h14.477v.487l-32.36 37.348 34.55 48.784v.486h-13.747L224.74 53.034l-13.382 15.45v25.183h-11.192V6.562h11.192v44.89h.487zM177.834 93.789l-8.759 5.718-5.961-8.881q-10.22 4.987-20.925 4.987-18.978 0-31.874-13.138Q97.42 69.458 97.42 50.115q0-19.344 12.895-32.361 12.896-13.14 31.874-13.139 18.978 0 31.874 13.26 12.895 13.018 12.895 32.24 0 10.218-4.014 19.1-3.893 8.88-11.193 15.45zm-35.645-8.881q7.787 0 14.72-3.407L146.69 66.173l8.76-5.961 10.097 15.207q9.975-9.61 9.976-25.305 0-15.206-9.611-24.939-9.49-9.854-23.723-9.854-14.234 0-23.844 9.854-9.489 9.854-9.489 24.94 0 15.085 9.489 24.939 9.61 9.855 23.844 9.854M88.079 53.642q0 18.249-10.828 29.076-12.165 12.895-31.995 12.895-18.978 0-32.117-13.138Q-.001 69.335 0 50.115q0-19.222 13.139-32.361Q26.278 4.614 45.256 4.615q9.611 0 18.127 3.407t13.99 9.61l-8.03 8.03q-4.014-4.866-10.462-7.543-6.326-2.798-13.625-2.798-14.235 0-24.088 9.854-9.732 9.976-9.732 24.94 0 14.962 9.732 24.939 9.855 9.855 24.088 9.854 13.017 0 21.655-7.3 8.637-7.299 9.975-20.073h-31.63V47.073H87.47q.609 3.405.609 6.57"/><path stroke="#368FF7" d="m223.105 32.338 50 70M282.105 32.338l47 71M131.105 41.338l47 71M269.936 1l-59.403 68.906"/><circle cx="171.105" cy="93.338" r="12" stroke="#368FF7"/><ellipse cx="71.606" cy="20.338" stroke="#368FF7" rx="11.5" ry="12"/><ellipse cx="440.105" cy="88.838" stroke="#368FF7" rx="12" ry="11.5"/><ellipse cx="513.105" cy="69.838" stroke="#368FF7" rx="12" ry="11.5"/></svg>
